X: 52
T: Hull's Victory  v.2
P: piffero secondo a059
O: John Bray (mod)
%R: hornpipe, reel
F: http://ancients.sudburymuster.org/mus/ssp/pdf/NatthewsF.pdf
Z: 2019 John Chambers <jc:trillian.mit.edu>
M: 2/4
L: 1/16
K: D
F2 |\
FDFA FDFA | AGFE F2DE | FEFG F2FE | DECD B,2 F2 | FDFA FDFA |
^GAFG A2 A,2 | B,A,B,C B,CDB, | C2E2 E2 :: AG FEFG AGFE | (D2B,2) B,2D2 |
GFGA BAGF | (E2C2) C2 A2 | AFAd AFAd | AEAe AEAe | dfdF cecE | F2A2 F2 :|


